X:175
T:The Black Haired Lass
T:The Dark Haired Lass
M:4/4
L:1/8
R:reel
D:Noel Hill & Tony McMahon: I gCnoc na Grai
D:Altan: Blackwater
K:Amix
|:c2AB cdec|d2gd BGBd|cBAB cdec|dfec A3B:|
cdef g2eg|f2df gfed|cdef geag|fdec A3B|
cdef g2eg|f2df g2fg|afge fdec|dfec A3B||
